icon/pk/income-one.svg

<svg viewBox="0 0 48 48" fill="none" xmlns="http://www.w3.org/2000/svg" height="1em" width="1em">
  <path d="M35 38L30 33L34.9996 28" stroke="black" stroke-width="4" stroke-linecap="round" stroke-linejoin="round"/>
  <path d="M43 38L38 33L42.9996 28" stroke="black" stroke-width="4" stroke-linecap="round" stroke-linejoin="round"/>
  <path d="M43 22V9C43 7.89543 42.1046 7 41 7H7C5.89543 7 5 7.89543 5 9V39C5 40.1046 5.89543 41 7 41H28.4706" stroke="black" stroke-width="4" stroke-linecap="round" stroke-linejoin="round"/>
  <path d="M13 15L18 21L23 15" stroke="black" stroke-width="4" stroke-linecap="round" stroke-linejoin="round"/>
  <path d="M12 27H24" stroke="black" stroke-width="4" stroke-linecap="round" stroke-linejoin="round"/>
  <path d="M12 21H24" stroke="black" stroke-width="4" stroke-linecap="round" stroke-linejoin="round"/>
  <path d="M18 21V33" stroke="black" stroke-width="4" stroke-linecap="round" stroke-linejoin="round"/>
</svg>

<svg width="48" height="48" fill="none" xmlns="http://www.w3.org/2000/svg"><path d="m35 38-5-5 5-5M43 38l-5-5 5-5" stroke="#000" stroke-width="4" stroke-linecap="round" stroke-linejoin="round"/><path d="M43 22V9a2 2 0 0 0-2-2H7a2 2 0 0 0-2 2v30a2 2 0 0 0 2 2h21.47" stroke="#000" stroke-width="4" stroke-linecap="round" stroke-linejoin="round"/><path d="m13 15 5 6 5-6M12 27h12M12 21h12M18 21v12" stroke="#000" stroke-width="4" stroke-linecap="round" stroke-linejoin="round"/></svg>
